images/uzcard.svg

<svg width="136" height="68" viewBox="0 0 136 68" fill="none" xmlns="http://www.w3.org/2000/svg">
<mask id="mask0_5_819" style="mask-type:luminance" maskUnits="userSpaceOnUse" x="49" y="13" width="38" height="42">
<path d="M86.5295 13H49.4707V55H86.5295V13Z" fill="white"/>
</mask>
<g mask="url(#mask0_5_819)">
<path d="M61.4799 13C62.0146 13.212 62.1943 13.6071 62.1936 14.1647C62.1843 21.5914 62.1843 29.0182 62.1936 36.445C62.1953 37.9568 62.3892 39.4438 62.9606 40.8627C63.6227 42.5075 64.7389 43.6866 66.5103 44.1784C68.6927 44.7841 71.6448 44.1225 72.947 41.0863C73.4208 39.9816 73.6631 38.8268 73.7506 37.6383C73.8756 35.9364 73.7912 34.2313 73.8042 32.5277C73.8059 32.292 73.8734 32.2441 74.0995 32.2446C78.145 32.2513 82.1905 32.2513 86.236 32.2446C86.4619 32.2446 86.5316 32.2928 86.5294 32.5267C86.505 34.1891 86.5639 35.8516 86.469 37.5128C86.3133 40.2449 85.8627 42.9176 84.848 45.482C83.3311 49.3152 80.6278 51.9735 76.7379 53.4568C74.5619 54.2849 72.3091 54.7547 69.987 54.9246C66.9046 55.1503 63.8733 54.8798 60.9051 54.0122C59.0645 53.4742 57.3327 52.7059 55.7723 51.5913C53.4985 49.967 52.0366 47.7559 51.0503 45.2066C50.3041 43.285 49.8953 41.2853 49.6723 39.2443C49.5031 37.6973 49.4725 36.1452 49.4735 34.5905C49.4782 27.782 49.4766 20.9734 49.4686 14.1649C49.4686 13.6064 49.6488 13.2135 50.1813 13H61.4799Z" fill="#1F3E79"/>
<path d="M76.5954 13C76.5401 13.6467 76.6355 14.282 76.7619 14.9118C77.5876 19.0245 81.003 22.171 85.2284 22.7126C85.5816 22.7573 85.9372 22.7807 86.2932 22.7825C86.491 22.784 86.5267 22.8473 86.5262 23.0278C86.5199 25.1994 86.5199 27.371 86.5262 29.5425C86.5262 29.7579 86.4812 29.8189 86.2521 29.8182C82.9106 29.8098 79.5698 29.8079 76.2296 29.8124C75.5005 29.8124 74.7712 29.8088 74.0421 29.8153C73.8797 29.817 73.8034 29.7941 73.8034 29.6028C73.8091 24.4077 73.8106 19.2125 73.8078 14.0172C73.8078 13.4985 74.0951 13.1867 74.5585 13H76.5954Z" fill="#1F3E79"/>
<path d="M85.6293 13.0001C85.7053 12.9984 85.7807 13.0144 85.8493 13.0469C85.8738 13.0596 85.9056 13.0637 85.9307 13.0758C86.3183 13.2618 86.521 13.5649 86.5212 13.9913C86.5212 16.044 86.5193 18.097 86.5266 20.1497C86.5266 20.3425 86.4532 20.3627 86.2894 20.3596C82.9816 20.2977 79.9676 17.8713 79.2439 14.6866C79.1214 14.1322 79.0527 13.5674 79.0388 13.0001H85.6293Z" fill="#EE7F1B"/>
</g>
</svg>

<svg xmlns="http://www.w3.org/2000/svg" width="136" height="68" fill="none"><mask id="a" width="38" height="42" x="49" y="13" maskUnits="userSpaceOnUse" style="mask-type:luminance"><path fill="#fff" d="M86.53 13H49.47v42h37.06V13Z"/></mask><g mask="url(#a)"><path fill="#1F3E79" d="M61.48 13c.535.212.714.607.714 1.165-.01 7.426-.01 14.853 0 22.28.001 1.512.195 2.999.767 4.418.662 1.645 1.778 2.824 3.55 3.315 2.182.606 5.134-.055 6.436-3.092.474-1.104.716-2.26.804-3.448.125-1.702.04-3.407.053-5.11.002-.236.07-.284.296-.283 4.045.006 8.09.006 12.136 0 .226 0 .296.048.293.282-.024 1.662.035 3.325-.06 4.986-.156 2.732-.606 5.405-1.621 7.969-1.517 3.833-4.22 6.492-8.11 7.975-2.176.828-4.429 1.298-6.751 1.468-3.082.225-6.114-.045-9.082-.913-1.84-.538-3.572-1.306-5.133-2.42-2.273-1.625-3.735-3.836-4.722-6.385-.746-1.922-1.155-3.922-1.378-5.963-.169-1.547-.2-3.099-.198-4.654.004-6.808.003-13.617-.005-20.425 0-.559.18-.951.712-1.165H61.48Z"/><path fill="#1F3E79" d="M76.595 13c-.055.647.04 1.282.167 1.912.826 4.112 4.241 7.259 8.466 7.8.354.045.71.069 1.065.07.198.002.234.065.233.246-.006 2.171-.006 4.343 0 6.515 0 .215-.045.276-.274.275-3.341-.008-6.682-.01-10.022-.006-.73 0-1.459-.003-2.188.003-.162.002-.239-.02-.239-.212.006-5.195.008-10.39.005-15.586 0-.518.287-.83.75-1.017h2.037Z"/><path fill="#EE7F1B" d="M85.63 13a.488.488 0 0 1 .22.047c.024.013.056.017.08.029.388.186.591.489.591.915 0 2.053-.002 4.106.006 6.159 0 .193-.074.213-.238.21-3.307-.062-6.321-2.489-7.045-5.673A8.818 8.818 0 0 1 79.039 13h6.59Z"/></g></svg>
